plugins/obs-filters/data/LUTs/grayscale.cube
LUT_3D_SIZE 32
0 0 0
0.006858064 0.006858064 0.006858064
0.01475175 0.01475175 0.01475175
0.0261755 0.0261755 0.0261755
0.04154104 0.04154104 0.04154104
0.05846322 0.05846322 0.05846322
0.07538541 0.07538541 0.07538541
0.09230758 0.09230758 0.09230758
0.1092298 0.1092298 0.1092298
0.1261519 0.1261519 0.1261519
0.1430741 0.1430741 0.1430741
0.1599963 0.1599963 0.1599963
0.1769185 0.1769185 0.1769185
0.1938407 0.1938407 0.1938407
0.2107628 0.2107628 0.2107628
0.227685 0.227685 0.227685
0.2446072 0.2446072 0.2446072
0.2615294 0.2615294 0.2615294
0.2784516 0.2784516 0.2784516
0.2953738 0.2953738 0.2953738
0.3122959 0.3122959 0.3122959
0.3292181 0.3292181 0.3292181
0.3461403 0.3461403 0.3461403
0.3630625 0.3630625 0.3630625
0.3799846 0.3799846 0.3799846
0.3969069 0.3969069 0.3969069
0.413829 0.413829 0.413829
0.4307512 0.4307512 0.4307512
0.4476734 0.4476734 0.4476734
0.4645956 0.4645956 0.4645956
0.4815177 0.4815177 0.4815177
0.4984399 0.4984399 0.4984399
0.02307097 0.02307097 0.02307097
0.02992903 0.02992903 0.02992903
0.03782272 0.03782272 0.03782272
0.04860547 0.04860547 0.04860547
0.06103814 0.06103814 0.06103814
0.07462848 0.07462848 0.07462848
0.08903021 0.08903021 0.08903021
0.1040065 0.1040065 0.1040065
0.1193968 0.1193968 0.1193968
0.1350911 0.1350911 0.1350911
0.151013 0.151013 0.151013
0.1671086 0.1671086 0.1671086
0.1833389 0.1833389 0.1833389
0.1996753 0.1996753 0.1996753
0.2160966 0.2160966 0.2160966
0.2325865 0.2325865 0.2325865
0.2491325 0.2491325 0.2491325
0.265725 0.265725 0.265725
0.2823564 0.2823564 0.2823564
0.2990204 0.2990204 0.2990204
0.3157122 0.3157122 0.3157122
0.3324277 0.3324277 0.3324277
0.3491637 0.3491637 0.3491637
0.3659174 0.3659174 0.3659174
0.3826864 0.3826864 0.3826864
0.399469 0.399469 0.399469
0.4162635 0.4162635 0.4162635
0.4330684 0.4330684 0.4330684
0.4498827 0.4498827 0.4498827
0.4667053 0.4667053 0.4667053
0.4835353 0.4835353 0.4835353
0.5003721 0.5003721 0.5003721
0.04893727 0.04893727 0.04893727
0.05469706 0.05469706 0.05469706
0.06084194 0.06084194 0.06084194
0.06900097 0.06900097 0.06900097
0.07893062 0.07893062 0.07893062
0.09029224 0.09029224 0.09029224
0.1027773 0.1027773 0.1027773
0.1161317 0.1161317 0.1161317
0.1301568 0.1301568 0.1301568
0.1447012 0.1447012 0.1447012
0.1596506 0.1596506 0.1596506
0.174919 0.174919 0.174919
0.1904413 0.1904413 0.1904413
0.2061675 0.2061675 0.2061675
0.2220593 0.2220593 0.2220593
0.2380871 0.2380871 0.2380871
0.2542272 0.2542272 0.2542272
0.2704611 0.2704611 0.2704611
0.2867739 0.2867739 0.2867739
0.3031537 0.3031537 0.3031537
0.3195906 0.3195906 0.3195906
0.3360766 0.3360766 0.3360766
0.3526049 0.3526049 0.3526049
0.3691701 0.3691701 0.3691701
0.3857676 0.3857676 0.3857676
0.4023933 0.4023933 0.4023933
0.4190439 0.4190439 0.4190439
0.4357167 0.4357167 0.4357167
0.4524091 0.4524091 0.4524091
0.469119 0.469119 0.469119
0.4858446 0.4858446 0.4858446
0.5025844 0.5025844 0.5025844
0.07699051 0.07699051 0.07699051
0.08118028 0.08118028 0.08118028
0.08578961 0.08578961 0.08578961
0.09210832 0.09210832 0.09210832
0.1000647 0.1000647 0.1000647
0.1094722 0.1094722 0.1094722
0.1201195 0.1201195 0.1201195
0.131801 0.131801 0.131801
0.1443328 0.1443328 0.1443328
0.157559 0.157559 0.157559
0.171351 0.171351 0.171351
0.1856049 0.1856049 0.1856049
0.2002372 0.2002372 0.2002372
0.2151812 0.2151812 0.2151812
0.2303833 0.2303833 0.2303833
0.2458006 0.2458006 0.2458006
0.2613985 0.2613985 0.2613985
0.2771489 0.2771489 0.2771489
0.293029 0.293029 0.293029
0.3090198 0.3090198 0.3090198
0.3251058 0.3251058 0.3251058
0.3412742 0.3412742 0.3412742
0.3575142 0.3575142 0.3575142
0.3738166 0.3738166 0.3738166
0.3901739 0.3901739 0.3901739
0.4065795 0.4065795 0.4065795
0.4230278 0.4230278 0.4230278
0.4395141 0.4395141 0.4395141
0.4560343 0.4560343 0.4560343
0.4725847 0.4725847 0.4725847
0.4891624 0.4891624 0.4891624
0.5057645 0.5057645 0.5057645
0.1050438 0.1050438 0.1050438
0.1082685 0.1082685 0.1082685
0.1118732 0.1118732 0.1118732
0.1169047 0.1169047 0.1169047
0.1233747 0.1233747 0.1233747
0.1311968 0.1311968 0.1311968
0.1402457 0.1402457 0.1402457
0.1503788 0.1503788 0.1503788
0.1614519 0.1614519 0.1614519
0.1733297 0.1733297 0.1733297
0.1858911 0.1858911 0.1858911
0.1990306 0.1990306 0.1990306
0.2126584 0.2126584 0.2126584
0.2266988 0.2266988 0.2266988
0.2410889 0.2410889 0.2410889
0.2557758 0.2557758 0.2557758
0.270716 0.270716 0.270716
0.285873 0.285873 0.285873
0.3012164 0.3012164 0.3012164
0.3167208 0.3167208 0.3167208
0.3323648 0.3323648 0.3323648
0.3481305 0.3481305 0.3481305
0.3640027 0.3640027 0.3640027
0.3799683 0.3799683 0.3799683
0.3960165 0.3960165 0.3960165
0.4121376 0.4121376 0.4121376
0.4283236 0.4283236 0.4283236
0.4445674 0.4445674 0.4445674
0.4608629 0.4608629 0.4608629
0.4772049 0.4772049 0.4772049
0.4935886 0.4935886 0.4935886
0.51001 0.51001 0.51001
0.133097 0.133097 0.133097
0.1356807 0.1356807 0.1356807
0.1385951 0.1385951 0.1385951
0.1427072 0.1427072 0.1427072
0.1480656 0.1480656 0.1480656
0.1546411 0.1546411 0.1546411
0.1623678 0.1623678 0.1623678
0.171156 0.171156 0.171156
0.1809035 0.1809035 0.1809035
0.1915051 0.1915051 0.1915051
0.2028587 0.2028587 0.2028587
0.2148692 0.2148692 0.2148692
0.227451 0.227451 0.227451
0.240528 0.240528 0.240528
0.2540339 0.2540339 0.2540339
0.2679115 0.2679115 0.2679115
0.2821114 0.2821114 0.2821114
0.2965916 0.2965916 0.2965916
0.3113157 0.3113157 0.3113157
0.3262532 0.3262532 0.3262532
0.3413775 0.3413775 0.3413775
0.356666 0.356666 0.356666
0.3720994 0.3720994 0.3720994
0.3876608 0.3876608 0.3876608
0.4033359 0.4033359 0.4033359
0.4191121 0.4191121 0.4191121
0.4349787 0.4349787 0.4349787
0.4509261 0.4509261 0.4509261
0.4669462 0.4669462 0.4669462
0.4830317 0.4830317 0.4830317
0.4991762 0.4991762 0.4991762
0.5153742 0.5153742 0.5153742
0.1611502 0.1611502 0.1611502
0.1632827 0.1632827 0.1632827
0.1657017 0.1657017 0.1657017
0.169138 0.169138 0.169138
0.1736549 0.1736549 0.1736549
0.1792542 0.1792542 0.1792542
0.1859075 0.1859075 0.1859075
0.1935629 0.1935629 0.1935629
0.2021532 0.2021532 0.2021532
0.2116021 0.2116021 0.2116021
0.2218298 0.2218298 0.2218298
0.2327572 0.2327572 0.2327572
0.2443091 0.2443091 0.2443091
0.2564152 0.2564152 0.2564152
0.2690119 0.2690119 0.2690119
0.2820416 0.2820416 0.2820416
0.2954537 0.2954537 0.2954537
0.3092031 0.3092031 0.3092031
0.3232504 0.3232504 0.3232504
0.3375612 0.3375612 0.3375612
0.3521053 0.3521053 0.3521053
0.3668565 0.3668565 0.3668565
0.3817919 0.3817919 0.3817919
0.3968914 0.3968914 0.3968914
0.4121377 0.4121377 0.4121377
0.4275152 0.4275152 0.4275152
0.4430108 0.4430108 0.4430108
0.4586124 0.4586124 0.4586124
0.4743098 0.4743098 0.4743098
0.4900937 0.4900937 0.4900937
0.5059561 0.5059561 0.5059561
0.5218897 0.5218897 0.5218897
0.1892035 0.1892035 0.1892035
0.1910042 0.1910042 0.1910042
0.1930542 0.1930542 0.1930542
0.1959797 0.1959797 0.1959797
0.1998478 0.1998478 0.1998478
0.2046769 0.2046769 0.2046769
0.210461 0.210461 0.210461
0.2171739 0.2171739 0.2171739
0.224774 0.224774 0.224774
0.2332092 0.2332092 0.2332092
0.2424203 0.2424203 0.2424203
0.2523452 0.2523452 0.2523452
0.2629213 0.2629213 0.2629213
0.2740879 0.2740879 0.2740879
0.2857871 0.2857871 0.2857871
0.2979654 0.2979654 0.2979654
0.3105734 0.3105734 0.3105734
0.3235663 0.3235663 0.3235663
0.3369038 0.3369038 0.3369038
0.3505498 0.3505498 0.3505498
0.364472 0.364472 0.364472
0.378642 0.378642 0.378642
0.3930342 0.3930342 0.3930342
0.4076261 0.4076261 0.4076261
0.4223978 0.4223978 0.4223978
0.4373315 0.4373315 0.4373315
0.4524117 0.4524117 0.4524117
0.4676243 0.4676243 0.4676243
0.482957 0.482957 0.482957
0.4983988 0.4983988 0.4983988
0.5139399 0.5139399 0.5139399
0.5295714 0.5295714 0.5295714
0.2172567 0.2172567 0.2172567
0.218805 0.218805 0.218805
0.220572 0.220572 0.220572
0.2231014 0.2231014 0.2231014
0.2264597 0.2264597 0.2264597
0.2306735 0.2306735 0.2306735
0.2357502 0.2357502 0.2357502
0.2416802 0.2416802 0.2416802
0.2484402 0.2484402 0.2484402
0.2559963 0.2559963 0.2559963
0.2643067 0.2643067 0.2643067
0.2733243 0.2733243 0.2733243
0.2829995 0.2829995 0.2829995
0.2932819 0.2932819 0.2932819
0.3041216 0.3041216 0.3041216
0.3154707 0.3154707 0.3154707
0.3272838 0.3272838 0.3272838
0.3395184 0.3395184 0.3395184
0.3521353 0.3521353 0.3521353
0.3650986 0.3650986 0.3650986
0.3783755 0.3783755 0.3783755
0.3919364 0.3919364 0.3919364
0.4057545 0.4057545 0.4057545
0.4198056 0.4198056 0.4198056
0.4340682 0.4340682 0.4340682
0.4485227 0.4485227 0.4485227
0.4631516 0.4631516 0.4631516
0.4779394 0.4779394 0.4779394
0.4928719 0.4928719 0.4928719
0.5079364 0.5079364 0.5079364
0.5231217 0.5231217 0.5231217
0.5384176 0.5384176 0.5384176
0.24531 0.24531 0.24531
0.2466607 0.2466607 0.2466607
0.248205 0.248205 0.248205
0.2504206 0.2504206 0.2504206
0.2533709 0.2533709 0.2533709
0.2570866 0.2570866 0.2570866
0.2615826 0.2615826 0.2615826
0.2668601 0.2668601 0.2668601
0.2729083 0.2729083 0.2729083
0.2797066 0.2797066 0.2797066
0.2872267 0.2872267 0.2872267
0.2954345 0.2954345 0.2954345
0.3042917 0.3042917 0.3042917
0.3137578 0.3137578 0.3137578
0.3237914 0.3237914 0.3237914
0.3343513 0.3343513 0.3343513
0.3453971 0.3453971 0.3453971
0.3568901 0.3568901 0.3568901
0.3687937 0.3687937 0.3687937
0.3810735 0.3810735 0.3810735
0.3936976 0.3936976 0.3936976
0.4066366 0.4066366 0.4066366
0.4198633 0.4198633 0.4198633
0.4333529 0.4333529 0.4333529
0.4470829 0.4470829 0.4470829
0.4610326 0.4610326 0.4610326
0.4751835 0.4751835 0.4751835
0.4895184 0.4895184 0.4895184
0.5040221 0.5040221 0.5040221
0.5186806 0.5186806 0.5186806
0.5334813 0.5334813 0.5334813
0.5484127 0.5484127 0.5484127
0.2733632 0.2733632 0.2733632
0.274556 0.274556 0.274556
0.2759213 0.2759213 0.2759213
0.2778834 0.2778834 0.2778834
0.280502 0.280502 0.280502
0.283809 0.283809 0.283809
0.2878236 0.2878236 0.2878236
0.2925538 0.2925538 0.2925538
0.2979972 0.2979972 0.2979972
0.304143 0.304143 0.304143
0.310973 0.310973 0.310973
0.3184632 0.3184632 0.3184632
0.3265851 0.3265851 0.3265851
0.3353072 0.3353072 0.3353072
0.3445959 0.3445959 0.3445959
0.3544165 0.3544165 0.3544165
0.3647345 0.3647345 0.3647345
0.3755156 0.3755156 0.3755156
0.3867267 0.3867267 0.3867267
0.3983359 0.3983359 0.3983359
0.4103131 0.4103131 0.4103131
0.42263 0.42263 0.42263
0.4352601 0.4352601 0.4352601
0.4481788 0.4481788 0.4481788
0.4613632 0.4613632 0.4613632
0.4747923 0.4747923 0.4747923
0.4884469 0.4884469 0.4884469
0.5023091 0.5023091 0.5023091
0.5163627 0.5163627 0.5163627
0.5305929 0.5305929 0.5305929
0.5449859 0.5449859 0.5449859
0.5595294 0.5595294 0.5595294
0.3014165 0.3014165 0.3014165
0.3024803 0.3024803 0.3024803
0.3036994 0.3036994 0.3036994
0.3054534 0.3054534 0.3054534
0.3077981 0.3077981 0.3077981
0.3107656 0.3107656 0.3107656
0.3143772 0.3143772 0.3143772
0.3186449 0.3186449 0.3186449
0.3235722 0.3235722 0.3235722
0.329155 0.329155 0.329155
0.3353828 0.3353828 0.3353828
0.3422394 0.3422394 0.3422394
0.3497043 0.3497043 0.3497043
0.3577534 0.3577534 0.3577534
0.3663602 0.3663602 0.3663602
0.3754965 0.3754965 0.3754965
0.3851329 0.3851329 0.3851329
0.39524 0.39524 0.39524
0.4057886 0.4057886 0.4057886
0.41675 0.41675 0.41675
0.4280965 0.4280965 0.4280965
0.4398015 0.4398015 0.4398015
0.4518399 0.4518399 0.4518399
0.4641878 0.4641878 0.4641878
0.4768229 0.4768229 0.4768229
0.4897243 0.4897243 0.4897243
0.5028726 0.5028726 0.5028726
0.5162497 0.5162497 0.5162497
0.529839 0.529839 0.529839
0.5436249 0.5436249 0.5436249
0.5575933 0.5575933 0.5575933
0.5717309 0.5717309 0.5717309
0.3294697 0.3294697 0.3294697
0.3304268 0.3304268 0.3304268
0.3315244 0.3315244 0.3315244
0.3331051 0.3331051 0.3331051
0.3352209 0.3352209 0.3352209
0.337903 0.337903 0.337903
0.3411738 0.3411738 0.3411738
0.3450477 0.3450477 0.3450477
0.349532 0.349532 0.349532
0.3546274 0.3546274 0.3546274
0.3603289 0.3603289 0.3603289
0.3666264 0.3666264 0.3666264
0.3735058 0.3735058 0.3735058
0.380949 0.380949 0.380949
0.3889356 0.3889356 0.3889356
0.3974429 0.3974429 0.3974429
0.4064469 0.4064469 0.4064469
0.4159225 0.4159225 0.4159225
0.4258445 0.4258445 0.4258445
0.4361875 0.4361875 0.4361875
0.4469266 0.4469266 0.4469266
0.4580376 0.4580376 0.4580376
0.469497 0.469497 0.469497
0.4812823 0.4812823 0.4812823
0.4933722 0.4933722 0.4933722
0.5057464 0.5057464 0.5057464
0.5183857 0.5183857 0.5183857
0.5312724 0.5312724 0.5312724
0.5443895 0.5443895 0.5443895
0.5577214 0.5577214 0.5577214
0.5712537 0.5712537 0.5712537
0.5849726 0.5849726 0.5849726
0.357523 0.357523 0.357523
0.3583905 0.3583905 0.3583905
0.3593858 0.3593858 0.3593858
0.3608204 0.3608204 0.3608204
0.3627425 0.3627425 0.3627425
0.3651823 0.3651823 0.3651823
0.3681623 0.3681623 0.3681623
0.3716983 0.3716983 0.3716983
0.3758 0.3758 0.3758
0.3804714 0.3804714 0.3804714
0.3857118 0.3857118 0.3857118
0.3915155 0.3915155 0.3915155
0.3978733 0.3978733 0.3978733
0.4047721 0.4047721 0.4047721
0.4121967 0.4121967 0.4121967
0.420129 0.420129 0.420129
0.4285496 0.4285496 0.4285496
0.4374377 0.4374377 0.4374377
0.4467718 0.4467718 0.4467718
0.4565299 0.4565299 0.4565299
0.46669 0.46669 0.46669
0.4772304 0.4772304 0.4772304
0.4881295 0.4881295 0.4881295
0.4993665 0.4993665 0.4993665
0.5109215 0.5109215 0.5109215
0.5227751 0.5227751 0.5227751
0.534909 0.534909 0.534909
0.5473056 0.5473056 0.5473056
0.5599487 0.5599487 0.5599487
0.5728225 0.5728225 0.5728225
0.5859124 0.5859124 0.5859124
0.5992048 0.5992048 0.5992048
0.3855762 0.3855762 0.3855762
0.3863675 0.3863675 0.3863675
0.3872759 0.3872759 0.3872759
0.3885859 0.3885859 0.3885859
0.3903426 0.3903426 0.3903426
0.3925746 0.3925746 0.3925746
0.3953043 0.3953043 0.3953043
0.3985482 0.3985482 0.3985482
0.4023174 0.4023174 0.4023174
0.4066184 0.4066184 0.4066184
0.4114532 0.4114532 0.4114532
0.4168198 0.4168198 0.4168198
0.4227125 0.4227125 0.4227125
0.4291226 0.4291226 0.4291226
0.4360385 0.4360385 0.4360385
0.4434467 0.4434467 0.4434467
0.4513314 0.4513314 0.4513314
0.4596757 0.4596757 0.4596757
0.4684616 0.4684616 0.4684616
0.4776703 0.4776703 0.4776703
0.4872825 0.4872825 0.4872825
0.497279 0.497279 0.497279
0.5076406 0.5076406 0.5076406
0.5183483 0.5183483 0.5183483
0.5293835 0.5293835 0.5293835
0.5407282 0.5407282 0.5407282
0.5523651 0.5523651 0.5523651
0.5642774 0.5642774 0.5642774
0.5764493 0.5764493 0.5764493
0.5888655 0.5888655 0.5888655
0.6015117 0.6015117 0.6015117
0.6143743 0.6143743 0.6143743
0.4136294 0.4136294 0.4136294
0.4143554 0.4143554 0.4143554
0.415189 0.415189 0.415189
0.4163918 0.4163918 0.4163918
0.4180057 0.4180057 0.4180057
0.4200581 0.4200581 0.4200581
0.4225707 0.4225707 0.4225707
0.4255603 0.4255603 0.4255603
0.4290389 0.4290389 0.4290389
0.4330145 0.4330145 0.4330145
0.4374913 0.4374913 0.4374913
0.4424697 0.4424697 0.4424697
0.4479471 0.4479471 0.4479471
0.4539179 0.4539179 0.4539179
0.4603739 0.4603739 0.4603739
0.4673049 0.4673049 0.4673049
0.4746986 0.4746986 0.4746986
0.4825413 0.4825413 0.4825413
0.4908181 0.4908181 0.4908181
0.4995131 0.4995131 0.4995131
0.5086098 0.5086098 0.5086098
0.5180914 0.5180914 0.5180914
0.5279408 0.5279408 0.5279408
0.5381409 0.5381409 0.5381409
0.5486749 0.5486749 0.5486749
0.5595261 0.5595261 0.5595261
0.5706785 0.5706785 0.5706785
0.5821161 0.5821161 0.5821161
0.593824 0.593824 0.593824
0.6057874 0.6057874 0.6057874
0.6179925 0.6179925 0.6179925
0.6304259 0.6304259 0.6304259
0.4416827 0.4416827 0.4416827
0.442352 0.442352 0.442352
0.4431208 0.4431208 0.4431208
0.4442305 0.4442305 0.4442305
0.4457203 0.4457203 0.4457203
0.4476162 0.4476162 0.4476162
0.4499391 0.4499391 0.4499391
0.4527058 0.4527058 0.4527058
0.4559288 0.4559288 0.4559288
0.4596172 0.4596172 0.4596172
0.4637765 0.4637765 0.4637765
0.4684092 0.4684092 0.4684092
0.4735149 0.4735149 0.4735149
0.4790903 0.4790903 0.4790903
0.4851303 0.4851303 0.4851303
0.491627 0.491627 0.491627
0.4985713 0.4985713 0.4985713
0.5059522 0.5059522 0.5059522
0.5137575 0.5137575 0.5137575
0.521974 0.521974 0.521974
0.5305876 0.5305876 0.5305876
0.5395839 0.5395839 0.5395839
0.5489479 0.5489479 0.5489479
0.5586643 0.5586643 0.5586643
0.568718 0.568718 0.568718
0.5790939 0.5790939 0.5790939
0.589777 0.589777 0.589777
0.6007528 0.6007528 0.6007528
0.612007 0.612007 0.612007
0.6235256 0.6235256 0.6235256
0.6352956 0.6352956 0.6352956
0.6473038 0.6473038 0.6473038
0.469736 0.469736 0.469736
0.4703557 0.4703557 0.4703557
0.4710679 0.4710679 0.4710679
0.4720961 0.4720961 0.4720961
0.4734772 0.4734772 0.4734772
0.4752357 0.4752357 0.4752357
0.4773919 0.4773919 0.4773919
0.4799621 0.4799621 0.4799621
0.4829592 0.4829592 0.4829592
0.4863927 0.4863927 0.4863927
0.4902694 0.4902694 0.4902694
0.4945931 0.4945931 0.4945931
0.499365 0.499365 0.499365
0.5045841 0.5045841 0.5045841
0.510247 0.510247 0.510247
0.5163485 0.5163485 0.5163485
0.5228815 0.5228815 0.5228815
0.5298377 0.5298377 0.5298377
0.5372071 0.5372071 0.5372071
0.5449789 0.5449789 0.5449789
0.5531412 0.5531412 0.5531412
0.5616818 0.5616818 0.5616818
0.5705875 0.5705875 0.5705875
0.5798449 0.5798449 0.5798449
0.5894406 0.5894406 0.5894406
0.599361 0.599361 0.599361
0.6095924 0.6095924 0.6095924
0.6201214 0.6201214 0.6201214
0.6309348 0.6309348 0.6309348
0.6420195 0.6420195 0.6420195
0.653363 0.653363 0.653363
0.6649529 0.6649529 0.6649529
0.4977892 0.4977892 0.4977892
0.4983655 0.4983655 0.4983655
0.4990277 0.4990277 0.4990277
0.4999842 0.4999842 0.4999842
0.5012694 0.5012694 0.5012694
0.5029066 0.5029066 0.5029066
0.5049152 0.5049152 0.5049152
0.5073112 0.5073112 0.5073112
0.5101074 0.5101074 0.5101074
0.5133138 0.5133138 0.5133138
0.5169379 0.5169379 0.5169379
0.5209844 0.5209844 0.5209844
0.525456 0.525456 0.525456
0.5303529 0.5303529 0.5303529
0.5356737 0.5356737 0.5356737
0.541415 0.541415 0.541415
0.5475717 0.5475717 0.5475717
0.5541372 0.5541372 0.5541372
0.5611041 0.5611041 0.5611041
0.5684631 0.5684631 0.5684631
0.5762048 0.5762048 0.5762048
0.5843183 0.5843183 0.5843183
0.5927927 0.5927927 0.5927927
0.6016161 0.6016161 0.6016161
0.6107768 0.6107768 0.6107768
0.6202626 0.6202626 0.6202626
0.630061 0.630061 0.630061
0.64016 0.64016 0.64016
0.6505472 0.6505472 0.6505472
0.6612107 0.6612107 0.6612107
0.6721387 0.6721387 0.6721387
0.6833195 0.6833195 0.6833195
0.5258424 0.5258424 0.5258424
0.5263802 0.5263802 0.5263802
0.5269982 0.5269982 0.5269982
0.5278911 0.5278911 0.5278911
0.5290912 0.5290912 0.5290912
0.5306206 0.5306206 0.5306206
0.5324979 0.5324979 0.5324979
0.5347387 0.5347387 0.5347387
0.5373555 0.5373555 0.5373555
0.5403587 0.5403587 0.5403587
0.5437559 0.5437559 0.5437559
0.5475529 0.5475529 0.5475529
0.5517532 0.5517532 0.5517532
0.5563583 0.5563583 0.5563583
0.5613681 0.5613681 0.5613681
0.5667807 0.5667807 0.5667807
0.5725926 0.5725926 0.5725926
0.578799 0.578799 0.578799
0.585394 0.585394 0.585394
0.5923705 0.5923705 0.5923705
0.5997202 0.5997202 0.5997202
0.6074345 0.6074345 0.6074345
0.6155038 0.6155038 0.6155038
0.623918 0.623918 0.623918
0.6326666 0.6326666 0.6326666
0.641739 0.641739 0.641739
0.651124 0.651124 0.651124
0.6608106 0.6608106 0.6608106
0.6707878 0.6707878 0.6707878
0.6810443 0.6810443 0.6810443
0.6915693 0.6915693 0.6915693
0.7023519 0.7023519 0.7023519
0.5538957 0.5538957 0.5538957
0.5543991 0.5543991 0.5543991
0.5549778 0.5549778 0.5549778
0.555814 0.555814 0.555814
0.5569381 0.5569381 0.5569381
0.5583712 0.5583712 0.5583712
0.5601312 0.5601312 0.5601312
0.5622329 0.5622329 0.5622329
0.5646887 0.5646887 0.5646887
0.5675091 0.5675091 0.5675091
0.5707021 0.5707021 0.5707021
0.5742737 0.5742737 0.5742737
0.5782283 0.5782283 0.5782283
0.5825684 0.5825684 0.5825684
0.5872948 0.5872948 0.5872948
0.5924069 0.5924069 0.5924069
0.5979026 0.5979026 0.5979026
0.6037785 0.6037785 0.6037785
0.6100301 0.6100301 0.6100301
0.6166517 0.6166517 0.6166517
0.6236368 0.6236368 0.6236368
0.6309781 0.6309781 0.6309781
0.6386676 0.6386676 0.6386676
0.6466965 0.6466965 0.6466965
0.6550558 0.6550558 0.6550558
0.663736 0.663736 0.663736
0.6727275 0.6727275 0.6727275
0.6820201 0.6820201 0.6820201
0.6916038 0.6916038 0.6916038
0.7014685 0.7014685 0.7014685
0.7116041 0.7116041 0.7116041
0.7220006 0.7220006 0.7220006
0.5819489 0.5819489 0.5819489
0.5824216 0.5824216 0.5824216
0.582965 0.582965 0.582965
0.5837504 0.5837504 0.5837504
0.5848064 0.5848064 0.5848064
0.5861532 0.5861532 0.5861532
0.5878076 0.5878076 0.5878076
0.5897841 0.5897841 0.5897841
0.5920951 0.5920951 0.5920951
0.5947505 0.5947505 0.5947505
0.5977586 0.5977586 0.5977586
0.601126 0.601126 0.601126
0.6048575 0.6048575 0.6048575
0.6089562 0.6089562 0.6089562
0.6134239 0.6134239 0.6134239
0.6182609 0.6182609 0.6182609
0.6234661 0.6234661 0.6234661
0.6290374 0.6290374 0.6290374
0.6349716 0.6349716 0.6349716
0.6412643 0.6412643 0.6412643
0.6479101 0.6479101 0.6479101
0.6549032 0.6549032 0.6549032
0.6622368 0.6622368 0.6622368
0.6699035 0.6699035 0.6699035
0.6778955 0.6778955 0.6778955
0.6862046 0.6862046 0.6862046
0.694822 0.694822 0.694822
0.703739 0.703739 0.703739
0.7129464 0.7129464 0.7129464
0.7224351 0.7224351 0.7224351
0.7321959 0.7321959 0.7321959
0.7422194 0.7422194 0.7422194
0.6100022 0.6100022 0.6100022
0.6104472 0.6104472 0.6104472
0.6109589 0.6109589 0.6109589
0.6116984 0.6116984 0.6116984
0.6126932 0.6126932 0.6126932
0.6139621 0.6139621 0.6139621
0.6155213 0.6155213 0.6155213
0.6173848 0.6173848 0.6173848
0.6195645 0.6195645 0.6195645
0.6220704 0.6220704 0.6220704
0.6249109 0.6249109 0.6249109
0.6280926 0.6280926 0.6280926
0.6316208 0.6316208 0.6316208
0.6354991 0.6354991 0.6354991
0.63973 0.63973 0.63973
0.6443145 0.6443145 0.6443145
0.6492527 0.6492527 0.6492527
0.6545431 0.6545431 0.6545431
0.6601836 0.6601836 0.6601836
0.666171 0.666171 0.666171
0.6725011 0.6725011 0.6725011
0.6791692 0.6791692 0.6791692
0.6861696 0.6861696 0.6861696
0.693496 0.693496 0.693496
0.701142 0.701142 0.701142
0.7091001 0.7091001 0.7091001
0.7173629 0.7173629 0.7173629
0.7259225 0.7259225 0.7259225
0.7347708 0.7347708 0.7347708
0.7438995 0.7438995 0.7438995
0.7533002 0.7533002 0.7533002
0.7629645 0.7629645 0.7629645
0.6380554 0.6380554 0.6380554
0.6384754 0.6384754 0.6384754
0.6389585 0.6389585 0.6389585
0.6396566 0.6396566 0.6396566
0.6405959 0.6405959 0.6405959
0.6417941 0.6417941 0.6417941
0.6432672 0.6432672 0.6432672
0.6450281 0.6450281 0.6450281
0.6470887 0.6470887 0.6470887
0.6494588 0.6494588 0.6494588
0.6521466 0.6521466 0.6521466
0.6551589 0.6551589 0.6551589
0.6585013 0.6585013 0.6585013
0.6621779 0.6621779 0.6621779
0.6661916 0.6661916 0.6661916
0.6705441 0.6705441 0.6705441
0.675236 0.675236 0.675236
0.680267 0.680267 0.680267
0.6856357 0.6856357 0.6856357
0.6913397 0.6913397 0.6913397
0.6973759 0.6973759 0.6973759
0.7037405 0.7037405 0.7037405
0.7104289 0.7104289 0.7104289
0.717436 0.717436 0.717436
0.7247559 0.7247559 0.7247559
0.7323827 0.7323827 0.7323827
0.7403096 0.7403096 0.7403096
0.7485297 0.7485297 0.7485297
0.7570359 0.7570359 0.7570359
0.7658206 0.7658206 0.7658206
0.7748764 0.7748764 0.7748764
0.7841955 0.7841955 0.7841955
0.6661087 0.6661087 0.6661087
0.666506 0.666506 0.666506
0.666963 0.666963 0.666963
0.6676236 0.6676236 0.6676236
0.6685124 0.6685124 0.6685124
0.6696466 0.6696466 0.6696466
0.6710411 0.6710411 0.6710411
0.6727087 0.6727087 0.6727087
0.6746608 0.6746608 0.6746608
0.6769069 0.6769069 0.6769069
0.6794552 0.6794552 0.6794552
0.6823127 0.6823127 0.6823127
0.6854849 0.6854849 0.6854849
0.6889765 0.6889765 0.6889765
0.6927904 0.6927904 0.6927904
0.6969292 0.6969292 0.6969292
0.7013939 0.7013939 0.7013939
0.7061849 0.7061849 0.7061849
0.7113014 0.7113014 0.7113014
0.716742 0.716742 0.716742
0.7225044 0.7225044 0.7225044
0.7285857 0.7285857 0.7285857
0.734982 0.734982 0.734982
0.7416891 0.7416891 0.7416891
0.7487023 0.7487023 0.7487023
0.7560163 0.7560163 0.7560163
0.7636253 0.7636253 0.7636253
0.7715234 0.7715234 0.7715234
0.779704 0.779704 0.779704
0.7881607 0.7881607 0.7881607
0.7968864 0.7968864 0.7968864
0.8058745 0.8058745 0.8058745
0.6941619 0.6941619 0.6941619
0.6945386 0.6945386 0.6945386
0.6949718 0.6949718 0.6949718
0.6955982 0.6955982 0.6955982
0.696441 0.696441 0.696441
0.6975167 0.6975167 0.6975167
0.6988397 0.6988397 0.6988397
