plugins/obs-filters/data/LUTs/grayscale.cube
LUT_3D_SIZE 8
DOMAIN_MIN 0.000000 0.000000 0.000000
DOMAIN_MAX 0.903226 0.903226 0.903226
0 0 0
0.04154104 0.04154104 0.04154104
0.1092298 0.1092298 0.1092298
0.1769185 0.1769185 0.1769185
0.2446072 0.2446072 0.2446072
0.3122959 0.3122959 0.3122959
0.3799846 0.3799846 0.3799846
0.4476734 0.4476734 0.4476734
0.1050438 0.1050438 0.1050438
0.1233747 0.1233747 0.1233747
0.1614519 0.1614519 0.1614519
0.2126584 0.2126584 0.2126584
0.270716 0.270716 0.270716
0.3323648 0.3323648 0.3323648
0.3960165 0.3960165 0.3960165
0.4608629 0.4608629 0.4608629
0.2172567 0.2172567 0.2172567
0.2264597 0.2264597 0.2264597
0.2484402 0.2484402 0.2484402
0.2829995 0.2829995 0.2829995
0.3272838 0.3272838 0.3272838
0.3783755 0.3783755 0.3783755
0.4340682 0.4340682 0.4340682
0.4928719 0.4928719 0.4928719
0.3294697 0.3294697 0.3294697
0.3352209 0.3352209 0.3352209
0.349532 0.349532 0.349532
0.3735058 0.3735058 0.3735058
0.4064469 0.4064469 0.4064469
0.4469266 0.4469266 0.4469266
0.4933722 0.4933722 0.4933722
0.5443895 0.5443895 0.5443895
0.4416827 0.4416827 0.4416827
0.4457203 0.4457203 0.4457203
0.4559288 0.4559288 0.4559288
0.4735149 0.4735149 0.4735149
0.4985713 0.4985713 0.4985713
0.5305876 0.5305876 0.5305876
0.568718 0.568718 0.568718
0.612007 0.612007 0.612007
0.5538957 0.5538957 0.5538957
0.5569381 0.5569381 0.5569381
0.5646887 0.5646887 0.5646887
0.5782283 0.5782283 0.5782283
0.5979026 0.5979026 0.5979026
0.6236368 0.6236368 0.6236368
0.6550558 0.6550558 0.6550558
0.6916038 0.6916038 0.6916038
0.6661087 0.6661087 0.6661087
0.6685124 0.6685124 0.6685124
0.6746608 0.6746608 0.6746608
0.6854849 0.6854849 0.6854849
0.7013939 0.7013939 0.7013939
0.7225044 0.7225044 0.7225044
0.7487023 0.7487023 0.7487023
0.779704 0.779704 0.779704
0.7783216 0.7783216 0.7783216
0.7802861 0.7802861 0.7802861
0.785323 0.785323 0.785323
0.7942318 0.7942318 0.7942318
0.8074182 0.8074182 0.8074182
0.8250777 0.8250777 0.8250777
0.847233 0.847233 0.847233
0.8737679 0.8737679 0.8737679
0.0141169 0.0141169 0.0141169
0.05404831 0.05404831 0.05404831
0.1155515 0.1155515 0.1155515
0.1808761 0.1808761 0.1808761
0.2473875 0.2473875 0.2473875
0.3143916 0.3143916 0.3143916
0.3816406 0.3816406 0.3816406
0.4490269 0.4490269 0.4490269
0.1115874 0.1115874 0.1115874
0.1290323 0.1290323 0.1290323
0.1658018 0.1658018 0.1658018
0.2159076 0.2159076 0.2159076
0.2731922 0.2731922 0.2731922
0.3343109 0.3343109 0.3343109
0.397591 0.397591 0.397591
0.4621684 0.4621684 0.4621684
0.2204304 0.2204304 0.2204304
0.2294909 0.2294909 0.2294909
0.251172 0.251172 0.251172
0.2853517 0.2853517 0.2853517
0.3292661 0.3292661 0.3292661
0.38004 0.38004 0.38004
0.4354745 0.4354745 0.4354745
0.494072 0.494072 0.494072
0.3314363 0.3314363 0.3314363
0.3371473 0.3371473 0.3371473
0.3513641 0.3513641 0.3513641
0.3751967 0.3751967 0.3751967
0.407972 0.407972 0.407972
0.4482829 0.4482829 0.4482829
0.4945709 0.4945709 0.4945709
0.5454481 0.5454481 0.5454481
0.443059 0.443059 0.443059
0.4470811 0.4470811 0.4470811
0.4572519 0.4572519 0.4572519
0.4747769 0.4747769 0.4747769
0.4997543 0.4997543 0.4997543
0.5316813 0.5316813 0.5316813
0.5697194 0.5697194 0.5697194
0.6129187 0.6129187 0.6129187
0.5549313 0.5549313 0.5549313
0.5579665 0.5579665 0.5579665
0.5656992 0.5656992 0.5656992
0.5792087 0.5792087 0.5792087
0.598842 0.598842 0.598842
0.6245268 0.6245268 0.6245268
0.6558912 0.6558912 0.6558912
0.6923826 0.6923826 0.6923826
0.6669262 0.6669262 0.6669262
0.6693261 0.6693261 0.6693261
0.675465 0.675465 0.675465
0.6862728 0.6862728 0.6862728
0.7021587 0.7021587 0.7021587
0.7232403 0.7232403 0.7232403
0.7494049 0.7494049 0.7494049
0.7803704 0.7803704 0.7803704
0.7789895 0.7789895 0.7789895
0.7809517 0.7809517 0.7809517
0.7859831 0.7859831 0.7859831
0.7948822 0.7948822 0.7948822
0.8080547 0.8080547 0.8080547
0.8256964 0.8256964 0.8256964
0.8478306 0.8478306 0.8478306
0.8743417 0.8743417 0.8743417
0.04971873 0.04971873 0.04971873
0.07947989 0.07947989 0.07947989
0.1305064 0.1305064 0.1305064
0.190677 0.190677 0.190677
0.2543978 0.2543978 0.2543978
0.3197211 0.3197211 0.3197211
0.3858715 0.3858715 0.3858715
0.4524944 0.4524944 0.4524944
0.126993 0.126993 0.126993
0.1426036 0.1426036 0.1426036
0.1765012 0.1765012 0.1765012
0.2240456 0.2240456 0.2240456
0.279461 0.279461 0.279461
0.3392685 0.3392685 0.3392685
0.4016168 0.4016168 0.4016168
0.4655141 0.4655141 0.4655141
0.2283883 0.2283883 0.2283883
0.2371074 0.2371074 0.2371074
0.2580645 0.2580645 0.2580645
0.2913157 0.2913157 0.2913157
0.3343135 0.3343135 0.3343135
0.3842925 0.3842925 0.3842925
0.4390757 0.4390757 0.4390757
0.4971507 0.4971507 0.4971507
0.3364448 0.3364448 0.3364448
0.3420554 0.3420554 0.3420554
0.3560369 0.3560369 0.3560369
0.3795155 0.3795155 0.3795155
0.4118733 0.4118733 0.4118733
0.4517576 0.4517576 0.4517576
0.4976456 0.4976456 0.4976456
0.5481665 0.5481665 0.5481665
0.4465843 0.4465843 0.4465843
0.4505673 0.4505673 0.4505673
0.4606423 0.4606423 0.4606423
0.4780125 0.4780125 0.4780125
0.5027891 0.5027891 0.5027891
0.5344888 0.5344888 0.5344888
0.5722917 0.5722917 0.5722917
0.6152622 0.6152622 0.6152622
0.557591 0.557591 0.557591
0.5606079 0.5606079 0.5606079
0.5682948 0.5682948 0.5682948
0.5817276 0.5817276 0.5817276
0.6012561 0.6012561 0.6012561
0.6268147 0.6268147 0.6268147
0.6580396 0.6580396 0.6580396
0.6943859 0.6943859 0.6943859
0.6690289 0.6690289 0.6690289
0.6714191 0.6714191 0.6714191
0.6775334 0.6775334 0.6775334
0.6882993 0.6882993 0.6882993
0.7041261 0.7041261 0.7041261
0.7251337 0.7251337 0.7251337
0.7512129 0.7512129 0.7512129
0.7820854 0.7820854 0.7820854
0.7807086 0.7807086 0.7807086
0.7826652 0.7826652 0.7826652
0.7876823 0.7876823 0.7876823
0.7965566 0.7965566 0.7965566
0.8096935 0.8096935 0.8096935
0.8272895 0.8272895 0.8272895
0.8493693 0.8493693 0.8493693
0.8758195 0.8758195 0.8758195
0.09287946 0.09287946 0.09287946
0.1130598 0.1130598 0.1130598
0.1537075 0.1537075 0.1537075
0.2069644 0.2069644 0.2069644
0.2664149 0.2664149 0.2664149
0.3290012 0.3290012 0.3290012
0.3933032 0.3933032 0.3933032
0.4586175 0.4586175 0.4586175
0.1507384 0.1507384 0.1507384
0.1640743 0.1640743 0.1640743
0.1940861 0.1940861 0.1940861
0.2378313 0.2378313 0.2378313
0.2902848 0.2902848 0.2902848
0.3479277 0.3479277 0.3479277
0.4086989 0.4086989 0.4086989
0.4714268 0.4714268 0.4714268
0.2418952 0.2418952 0.2418952
0.2500821 0.2500821 0.2500821
0.2698936 0.2698936 0.2698936
0.3016425 0.3016425 0.3016425
0.3431234 0.3431234 0.3431234
0.3917609 0.3917609 0.3917609
0.4454294 0.4454294 0.4454294
0.5026002 0.5026002 0.5026002
0.3451893 0.3451893 0.3451893
0.3506318 0.3506318 0.3506318
0.3642173 0.3642173 0.3642173
0.3870968 0.3870968 0.3870968
0.4187423 0.4187423 0.4187423
0.4578929 0.4578929 0.4578929
0.5030884 0.5030884 0.5030884
0.5529881 0.5529881 0.5529881
0.4528072 0.4528072 0.4528072
0.4567226 0.4567226 0.4567226
0.4666322 0.4666322 0.4666322
0.4837344 0.4837344 0.4837344
0.5081626 0.5081626 0.5081626
0.5394663 0.5394663 0.5394663
0.576858 0.576858 0.576858
0.6194271 0.6194271 0.6194271
0.56231 0.56231 0.56231
0.5652949 0.5652949 0.5652949
0.5729018 0.5729018 0.5729018
0.5862003 0.5862003 0.5862003
0.605545 0.605545 0.605545
0.6308818 0.6308818 0.6308818
0.6618612 0.6618612 0.6618612
0.6979521 0.6979521 0.6979521
0.67277 0.67277 0.67277
0.6751431 0.6751431 0.6751431
0.6812143 0.6812143 0.6812143
0.6919062 0.6919062 0.6919062
0.7076287 0.7076287 0.7076287
0.7285057 0.7285057 0.7285057
0.7544339 0.7544339 0.7544339
0.7851421 0.7851421 0.7851421
0.7837722 0.7837722 0.7837722
0.7857189 0.7857189 0.7857189
0.7907107 0.7907107 0.7907107
0.7995411 0.7995411 0.7995411
0.8126149 0.8126149 0.8126149
0.83013 0.83013 0.83013
0.8521137 0.8521137 0.8521137
0.8784556 0.8784556 0.8784556
0.1360402 0.1360402 0.1360402
0.1507144 0.1507144 0.1507144
0.1830568 0.1830568 0.1830568
0.2291281 0.2291281 0.2291281
0.2834225 0.2834225 0.2834225
0.3424235 0.3424235 0.3424235
0.4041899 0.4041899 0.4041899
0.4676584 0.4676584 0.4676584
0.1805939 0.1805939 0.1805939
0.1917576 0.1917576 0.1917576
0.2177072 0.2177072 0.2177072
0.2570406 0.2570406 0.2570406
0.3057551 0.3057551 0.3057551
0.3605081 0.3605081 0.3605081
0.4190963 0.4190963 0.4190963
0.4801673 0.4801673 0.4801673
0.2607637 0.2607637 0.2607637
0.2682934 0.2682934 0.2682934
0.2866618 0.2866618 0.2866618
0.3164607 0.3164607 0.3164607
0.3559089 0.3559089 0.3559089
0.4026987 0.4026987 0.4026987
0.4547983 0.4547983 0.4547983
0.5106763 0.5106763 0.5106763
0.3578859 0.3578859 0.3578859
0.3630991 0.3630991 0.3630991
0.3761415 0.3761415 0.3761415
0.3981918 0.3981918 0.3981918
0.4288402 0.4288402 0.4288402
0.4669514 0.4669514 0.4669514
0.5111547 0.5111547 0.5111547
0.5601563 0.5601563 0.5601563
0.4619902 0.4619902 0.4619902
0.4658095 0.4658095 0.4658095
0.4754832 0.4754832 0.4754832
0.4922019 0.4922019 0.4922019
0.516129 0.516129 0.516129
0.5468604 0.5468604 0.5468604
0.5836549 0.5836549 0.5836549
0.6256377 0.6256377 0.6256377
0.5693292 0.5693292 0.5693292
0.5722674 0.5722674 0.5722674
0.579758 0.579758 0.579758
0.5928606 0.5928606 0.5928606
0.611937 0.611937 0.611937
0.6369492 0.6369492 0.6369492
0.6675683 0.6675683 0.6675683
0.7032832 0.7032832 0.7032832
0.6783588 0.6783588 0.6783588
0.6807067 0.6807067 0.6807067
0.6867144 0.6867144 0.6867144
0.6972972 0.6972972 0.6972972
0.7128661 0.7128661 0.7128661
0.7335503 0.7335503 0.7335503
0.7592553 0.7592553 0.7592553
0.7897202 0.7897202 0.7897202
0.7883608 0.7883608 0.7883608
0.7902927 0.7902927 0.7902927
0.795247 0.795247 0.795247
0.8040123 0.8040123 0.8040123
0.8169927 0.8169927 0.8169927
0.8343877 0.8343877 0.8343877
0.8562283 0.8562283 0.8562283
0.8824095 0.8824095 0.8824095
0.1792009 0.1792009 0.1792009
0.1904526 0.1904526 0.1904526
0.2165736 0.2165736 0.2165736
0.2561026 0.2561026 0.2561026
0.30499 0.30499 0.30499
0.3598806 0.3598806 0.3598806
0.4185747 0.4185747 0.4185747
0.4797272 0.4797272 0.4797272
0.2145296 0.2145296 0.2145296
0.2238579 0.2238579 0.2238579
0.246101 0.246101 0.246101
0.2809906 0.2809906 0.2809906
0.3255948 0.3255948 0.3255948
0.3769597 0.3769597 0.3769597
0.4328735 0.4328735 0.4328735
0.4918531 0.4918531 0.4918531
0.2843521 0.2843521 0.2843521
0.291177 0.291177 0.291177
0.3079636 0.3079636 0.3079636
0.3355514 0.3355514 0.3355514
0.3726069 0.3726069 0.3726069
0.4171468 0.4171468 0.4171468
0.4672834 0.4672834 0.4672834
0.5215095 0.5215095 0.5215095
0.3744772 0.3744772 0.3744772
0.3794146 0.3794146 0.3794146
0.3917994 0.3917994 0.3917994
0.4128339 0.4128339 0.4128339
0.4422431 0.4422431 0.4422431
0.4790424 0.4790424 0.4790424
0.5219755 0.5219755 0.5219755
0.5698128 0.5698128 0.5698128
0.4742396 0.4742396 0.4742396
0.4779367 0.4779367 0.4779367
0.4873101 0.4873101 0.4873101
0.5035384 0.5035384 0.5035384
0.526821 0.526821 0.526821
0.5568111 0.5568111 0.5568111
0.5928262 0.5928262 0.5928262
0.6340387 0.6340387 0.6340387
0.5787911 0.5787911 0.5787911
0.5816686 0.5816686 0.5816686
0.5890068 0.5890068 0.5890068
0.601853 0.601853 0.601853
0.6205769 0.6205769 0.6205769
0.6451613 0.6451613 0.6451613
0.6753035 0.6753035 0.6753035
0.7105191 0.7105191 0.7105191
0.6859372 0.6859372 0.6859372
0.6882517 0.6882517 0.6882517
0.6941749 0.6941749 0.6941749
0.704613 0.704613 0.704613
0.7199773 0.7199773 0.7199773
0.7404044 0.7404044 0.7404044
0.7658114 0.7658114 0.7658114
0.7959507 0.7959507 0.7959507
0.7946051 0.7946051 0.7946051
0.7965173 0.7965173 0.7965173
0.8014212 0.8014212 0.8014212
0.8100993 0.8100993 0.8100993
0.8229542 0.8229542 0.8229542
0.8401879 0.8401879 0.8401879
0.8618363 0.8618363 0.8618363
0.8878009 0.8878009 0.8878009
0.2223617 0.2223617 0.2223617
0.2313372 0.2313372 0.2313372
0.2528391 0.2528391 0.2528391
0.2867905 0.2867905 0.2867905
0.3304809 0.3304809 0.3304809
0.3810618 0.3810618 0.3810618
0.4363386 0.4363386 0.4363386
0.4948101 0.4948101 0.4948101
0.2511264 0.2511264 0.2511264
0.2589802 0.2589802 0.2589802
0.2780641 0.2780641 0.2780641
0.3088379 0.3088379 0.3088379
0.3493114 0.3493114 0.3493114
0.3970405 0.3970405 0.3970405
0.4499425 0.4499425 0.4499425
0.5064846 0.5064846 0.5064846
0.3118484 0.3118484 0.3118484
0.3179825 0.3179825 0.3179825
0.3331853 0.3331853 0.3331853
0.3584822 0.3584822 0.3584822
0.392959 0.392959 0.392959
0.4349827 0.4349827 0.4349827
0.4828545 0.4828545 0.4828545
0.5351278 0.5351278 0.5351278
0.394712 0.394712 0.394712
0.399345 0.399345 0.399345
0.410999 0.410999 0.410999
0.4308902 0.4308902 0.4308902
0.458881 0.458881 0.458881
0.4941516 0.4941516 0.4941516
0.5355787 0.5355787 0.5355787
0.5820148 0.5820148 0.5820148
0.4895345 0.4895345 0.4895345
0.4930882 0.4930882 0.4930882
0.5021079 0.5021079 0.5021079
0.5177559 0.5177559 0.5177559
0.5402702 0.5402702 0.5402702
0.569369 0.569369 0.569369
0.6044386 0.6044386 0.6044386
0.6447086 0.6447086 0.6447086
0.5907573 0.5907573 0.5907573
0.5935606 0.5935606 0.5935606
0.6007137 0.6007137 0.6007137
0.6132472 0.6132472 0.6132472
0.63154 0.63154 0.63154
0.6555988 0.6555988 0.6555988
0.6851527 0.6851527 0.6851527
0.7197491 0.7197491 0.7197491
0.6955921 0.6955921 0.6955921
0.6978652 0.6978652 0.6978652
0.7036838 0.7036838 0.7036838
0.7139421 0.7139421 0.7139421
0.7290521 0.7290521 0.7290521
0.749159 0.749159 0.749159
0.7741935 0.7741935 0.7741935
0.8039248 0.8039248 0.8039248
0.8025968 0.8025968 0.8025968
0.8044841 0.8044841 0.8044841
0.8093249 0.8093249 0.8093249
0.8178934 0.8178934 0.8178934
0.8305907 0.8305907 0.8305907
0.8476214 0.8476214 0.8476214
0.8690276 0.8690276 0.8690276
0.8947189 0.8947189 0.8947189
0.2655224 0.2655224 0.2655224
0.2729003 0.2729003 0.2729003
0.2909309 0.2909309 0.2909309
0.3202641 0.3202641 0.3202641
0.3592162 0.3592162 0.3592162
0.4055462 0.4055462 0.4055462
0.4572493 0.4572493 0.4572493
0.5127967 0.5127967 0.5127967
0.2894776 0.2894776 0.2894776
0.2961641 0.2961641 0.2961641
0.3126358 0.3126358 0.3126358
0.3397742 0.3397742 0.3397742
0.3763319 0.3763319 0.3763319
0.4203934 0.4203934 0.4203934
0.4701051 0.4701051 0.4701051
0.5239688 0.5239688 0.5239688
0.3424625 0.3424625 0.3424625
0.3479565 0.3479565 0.3479565
0.3616635 0.3616635 0.3616635
0.3847273 0.3847273 0.3847273
0.4165926 0.4165926 0.4165926
0.4559705 0.4559705 0.4559705
0.5013812 0.5013812 0.5013812
0.5514743 0.5514743 0.5514743
0.4182244 0.4182244 0.4182244
0.4225419 0.4225419 0.4225419
0.4334326 0.4334326 0.4334326
0.4521136 0.4521136 0.4521136
0.4785762 0.4785762 0.4785762
0.5121672 0.5121672 0.5121672
0.5519084 0.5519084 0.5519084
0.5967487 0.5967487 0.5967487
0.5077561 0.5077561 0.5077561
0.511151 0.511151 0.511151
0.5197777 0.5197777 0.5197777
0.534777 0.534777 0.534777
0.5564256 0.5564256 0.5564256
0.5845105 0.5845105 0.5845105
0.6184936 0.6184936 0.6184936
0.6576693 0.6576693 0.6576693
0.60522 0.60522 0.60522
0.6079382 0.6079382 0.6079382
0.6148777 0.6148777 0.6148777
0.6270497 0.6270497 0.6270497
0.6448423 0.6448423 0.6448423
0.6682882 0.6682882 0.6682882
0.6971521 0.6971521 0.6971521
0.7310182 0.7310182 0.7310182
0.7073629 0.7073629 0.7073629
0.7095872 0.7095872 0.7095872
0.7152824 0.7152824 0.7152824
0.7253284 0.7253284 0.7253284
0.7401376 0.7401376 0.7401376
0.7598645 0.7598645 0.7598645
0.784456 0.784456 0.784456
0.8137002 0.8137002 0.8137002
0.8123931 0.8123931 0.8123931
0.8142506 0.8142506 0.8142506
0.819016 0.819016 0.819016
0.8274533 0.8274533 0.8274533
0.8399617 0.8399617 0.8399617
0.8567488 0.8567488 0.8567488
0.8778637 0.8778637 0.8778637
0.9032258 0.9032258 0.9032258
