plugins/obs-filters/data/LUTs/grayscale.cube
LUT_3D_SIZE 5
DOMAIN_MIN 0.000000 0.000000 0.000000
DOMAIN_MAX 0.903226 0.903226 0.903226
0 0 0
0.09230758 0.09230758 0.09230758
0.2107628 0.2107628 0.2107628
0.3292181 0.3292181 0.3292181
0.4476734 0.4476734 0.4476734
0.1892035 0.1892035 0.1892035
0.2171739 0.2171739 0.2171739
0.2857871 0.2857871 0.2857871
0.378642 0.378642 0.378642
0.482957 0.482957 0.482957
0.3855762 0.3855762 0.3855762
0.3985482 0.3985482 0.3985482
0.4360385 0.4360385 0.4360385
0.497279 0.497279 0.497279
0.5764493 0.5764493 0.5764493
0.5819489 0.5819489 0.5819489
0.5897841 0.5897841 0.5897841
0.6134239 0.6134239 0.6134239
0.6549032 0.6549032 0.6549032
0.7129464 0.7129464 0.7129464
0.7783216 0.7783216 0.7783216
0.783722 0.783722 0.783722
0.8002737 0.8002737 0.8002737
0.8301974 0.8301974 0.8301974
0.8737679 0.8737679 0.8737679
0.03891982 0.03891982 0.03891982
0.1113919 0.1113919 0.1113919
0.2196772 0.2196772 0.2196772
0.3346112 0.3346112 0.3346112
0.4513927 0.4513927 0.4513927
0.1991881 0.1991881 0.1991881
0.2258064 0.2258064 0.2258064
0.292146 0.292146 0.292146
0.3832058 0.3832058 0.3832058
0.4863419 0.4863419 0.4863419
0.390041 0.390041 0.390041
0.4028372 0.4028372 0.4028372
0.4398806 0.4398806 0.4398806
0.5005426 0.5005426 0.5005426
0.5791578 0.5791578 0.5791578
0.5846249 0.5846249 0.5846249
0.592415 0.592415 0.592415
0.6159259 0.6159259 0.6159259
0.6572038 0.6572038 0.6572038
0.7150081 0.7150081 0.7150081
0.7801611 0.7801611 0.7801611
0.785545 0.785545 0.785545
0.8020476 0.8020476 0.8020476
0.8318881 0.8318881 0.8318881
0.8753488 0.8753488 0.8753488
0.1144598 0.1144598 0.1144598
0.1571388 0.1571388 0.1571388
0.2451935 0.2451935 0.2451935
0.3508086 0.3508086 0.3508086
0.4627631 0.4627631 0.4627631
0.2272946 0.2272946 0.2272946
0.2506219 0.2506219 0.2506219
0.3110173 0.3110173 0.3110173
0.3970405 0.3970405 0.3970405
0.4967217 0.4967217 0.4967217
0.4035898 0.4035898 0.4035898
0.4158765 0.4158765 0.4158765
0.4516129 0.4516129 0.4516129
0.5105608 0.5105608 0.5105608
0.5875097 0.5875097 0.5875097
0.5928785 0.5928785 0.5928785
0.600532 0.600532 0.600532
0.623653 0.623653 0.623653
0.6643189 0.6643189 0.6643189
0.7213943 0.7213943 0.7213943
0.7858667 0.7858667 0.7858667
0.7911999 0.7911999 0.7911999
0.8075518 0.8075518 0.8075518
0.8371367 0.8371367 0.8371367
0.8802596 0.8802596 0.8802596
0.1899911 0.1899911 0.1899911
0.2178509 0.2178509 0.2178509
0.2862817 0.2862817 0.2862817
0.3789951 0.3789951 0.3789951
0.4832182 0.4832182 0.4832182
0.2714988 0.2714988 0.2714988
0.2908328 0.2908328 0.2908328
0.3431817 0.3431817 0.3431817
0.4215293 0.4215293 0.4215293
0.5155067 0.5155067 0.5155067
0.4276195 0.4276195 0.4276195
0.4390824 0.4390824 0.4390824
0.4726712 0.4726712 0.4726712
0.5287294 0.5287294 0.5287294
0.6027947 0.6027947 0.6027947
0.6079914 0.6079914 0.6079914
0.615405 0.615405 0.615405
0.637839 0.637839 0.637839
0.6774194 0.6774194 0.6774194
0.7331914 0.7331914 0.7331914
0.7964365 0.7964365 0.7964365
0.8016779 0.8016779 0.8016779
0.8177567 0.8177567 0.8177567
0.8468771 0.8468771 0.8468771
0.8893844 0.8893844 0.8893844
0.2655224 0.2655224 0.2655224
0.2853281 0.2853281 0.2853281
0.3386774 0.3386774 0.3386774
0.4180363 0.4180363 0.4180363
0.5127967 0.5127967 0.5127967
0.3266838 0.3266838 0.3266838
0.3424137 0.3424137 0.3424137
0.3866611 0.3866611 0.3866611
0.4561821 0.4561821 0.4561821
0.5428983 0.5428983 0.5428983
0.4617098 0.4617098 0.4617098
0.4721537 0.4721537 0.4721537
0.5030273 0.5030273 0.5030273
0.5553017 0.5553017 0.5553017
0.6254469 0.6254469 0.6254469
0.6304051 0.6304051 0.6304051
0.6374857 0.6374857 0.6374857
0.6589611 0.6589611 0.6589611
0.6970114 0.6970114 0.6970114
0.7509226 0.7509226 0.7509226
0.8123931 0.8123931 0.8123931
0.8175009 0.8175009 0.8175009
0.8331816 0.8331816 0.8331816
0.8616229 0.8616229 0.8616229
0.9032258 0.9032258 0.9032258
